Numix-Circle/48x48/apps/chrome-https___stackedit.io_editor.svg

<?xml version="1.0" encoding="UTF-8" standalone="no"?>
<svg
   xmlns:dc="http://purl.org/dc/elements/1.1/"
   xmlns:cc="http://creativecommons.org/ns#"
   xmlns:rdf="http://www.w3.org/1999/02/22-rdf-syntax-ns#"
   xmlns:svg="http://www.w3.org/2000/svg"
   xmlns="http://www.w3.org/2000/svg"
   xmlns:sodipodi="http://sodipodi.sourceforge.net/DTD/sodipodi-0.dtd"
   xmlns:inkscape="http://www.inkscape.org/namespaces/inkscape"
   viewBox="0 0 48 48"
   id="svg2"
   version="1.1"
   inkscape:version="0.91 r13725"
   width="100%"
   height="100%"
   sodipodi:docname="chrome-https___stackedit.io_editor.svg">
  <metadata
     id="metadata48">
    <rdf:RDF>
      <cc:Work
         rdf:about="">
        <dc:format>image/svg+xml</dc:format>
        <dc:type
           rdf:resource="http://purl.org/dc/dcmitype/StillImage" />
      </cc:Work>
    </rdf:RDF>
  </metadata>
  <sodipodi:namedview
     pagecolor="#ffffff"
     bordercolor="#666666"
     borderopacity="1"
     objecttolerance="10"
     gridtolerance="10"
     guidetolerance="10"
     inkscape:pageopacity="0"
     inkscape:pageshadow="2"
     inkscape:window-width="1280"
     inkscape:window-height="998"
     id="namedview46"
     showgrid="true"
     inkscape:zoom="5.6568542"
     inkscape:cx="1.7895825"
     inkscape:cy="29.13288"
     inkscape:window-x="0"
     inkscape:window-y="0"
     inkscape:window-maximized="1"
     inkscape:current-layer="svg2">
    <inkscape:grid
       type="xygrid"
       id="grid4120" />
  </sodipodi:namedview>
  <defs
     id="defs4" />
  <path
     d="m 36.31,5 c 5.859,4.062 9.688,10.831 9.688,18.5 0,12.426 -10.07,22.5 -22.5,22.5 -7.669,0 -14.438,-3.828 -18.5,-9.688 1.037,1.822 2.306,3.499 3.781,4.969 4.085,3.712 9.514,5.969 15.469,5.969 12.703,0 23,-10.298 23,-23 0,-5.954 -2.256,-11.384 -5.969,-15.469 C 39.81,7.306 38.132,6.037 36.31,5 z m 4.969,3.781 c 3.854,4.113 6.219,9.637 6.219,15.719 0,12.703 -10.297,23 -23,23 -6.081,0 -11.606,-2.364 -15.719,-6.219 4.16,4.144 9.883,6.719 16.219,6.719 12.703,0 23,-10.298 23,-23 0,-6.335 -2.575,-12.06 -6.719,-16.219 z"
     opacity="0.05"
     id="path18" />
  <path
     d="m 41.28 8.781 c 3.712 4.085 5.969 9.514 5.969 15.469 0 12.703 -10.297 23 -23 23 -5.954 0 -11.384 -2.256 -15.469 -5.969 4.113 3.854 9.637 6.219 15.719 6.219 12.703 0 23 -10.298 23 -23 0 -6.081 -2.364 -11.606 -6.219 -15.719 z"
     opacity="0.1"
     id="path20" />
  <path
     d="M 31.25,2.375 C 39.865,5.529 46,13.792 46,23.505 c 0,12.426 -10.07,22.5 -22.5,22.5 -9.708,0 -17.971,-6.135 -21.12,-14.75 a 23,23 0 0 0 44.875,-7 23,23 0 0 0 -16,-21.875 z"
     opacity="0.2"
     id="path22" />
  <path
     style="fill:#bbd500;fill-opacity:1;fill-rule:evenodd;stroke:none"
     inkscape:connector-curvature="0"
     d="m 7.736544,7.7365441 c -8.9823774,8.9823769 -8.9823774,23.5445349 0,32.5269119 L 24,24 7.736544,7.7365441 z"
     id="path24" />
  <path
     style="fill:#ffe600;fill-opacity:1;fill-rule:evenodd;stroke:none"
     inkscape:connector-curvature="0"
     d="M 7.736544,7.7365441 24,24 40.263456,7.7365441 c -8.982378,-8.9823775 -23.544535,-8.9823775 -32.526912,0 z"
     id="path26" />
  <path
     style="fill:#75b7fd;fill-opacity:1;fill-rule:evenodd;stroke:none"
     inkscape:connector-curvature="0"
     d="m 24,24 16.263456,16.263456 c 8.982377,-8.982377 8.982377,-23.544535 0,-32.5269119 L 24,24 z"
     id="path28" />
  <path
     style="fill:#ff8a00;fill-opacity:1;fill-rule:evenodd;stroke:none"
     inkscape:connector-curvature="0"
     d="m 7.736544,40.263456 c 8.982377,8.982377 23.544534,8.982377 32.526912,0 L 24,24 7.736544,40.263456 z"
     id="path30" />
  <path
     d="m 40.03,7.531 c 3.712,4.084 5.969,9.514 5.969,15.469 0,12.703 -10.297,23 -23,23 C 17.045,46 11.615,43.744 7.53,40.031 11.708,44.322 17.54,47 23.999,47 c 12.703,0 23,-10.298 23,-23 0,-6.462 -2.677,-12.291 -6.969,-16.469 z"
     opacity="0.1"
     id="path44" />
  <path
     style="fill:#000000;fill-opacity:1;opacity:0.1"
     inkscape:connector-curvature="0"
     d="m 16.750001,13.000001 16.5,0 C 35.321,13.000001 37,14.679 37,16.750001 l 0,16.5 C 37,35.321 35.321,37 33.250001,37 l -16.5,0 C 14.679,37 13,35.321 13,33.250001 l 0,-16.5 c 0,-2.071001 1.679,-3.75 3.750001,-3.75 z"
     id="path4146" />
  <path
     id="path3912"
     d="m 15.750001,12.000001 16.5,0 C 34.321,12.000001 36,13.679 36,15.750001 l 0,16.5 C 36,34.321 34.321,36 32.250001,36 l -16.5,0 C 13.679,36 12,34.321 12,32.250001 l 0,-16.5 c 0,-2.071001 1.679,-3.75 3.750001,-3.75 z"
     inkscape:connector-curvature="0"
     style="fill:#ffffff" />
  <path
     style="fill:#000000;fill-opacity:1;stroke:none;opacity:0.1"
     d="M 19,16 18.53125,19 16,19 16,21 18.21875,21 17.75,24 16,24 16,26 17.46875,26 17,29 l 2,0 0.46875,-3 2,0 L 21,29 23,29 23.46875,26 26,26 26,24 23.75,24 24.21875,21 26,21 26,19 24.53125,19 25,16 l -2,0 -0.46875,3 -2,0 L 21,16 19,16 z m 1.21875,5 2,0 -0.46875,3 -2,0 0.46875,-3 z"
     id="path4148"
     inkscape:connector-curvature="0" />
  <path
     style="fill:#737373;fill-opacity:1;stroke:none"
     d="m 16,28 2,-13 2,0 -2,13 z"
     id="path4122"
     inkscape:connector-curvature="0"
     sodipodi:nodetypes="ccccc" />
  <path
     inkscape:connector-curvature="0"
     id="path4124"
     d="m 20,28 2,-13 2,0 -2,13 z"
     style="fill:#737373;fill-opacity:1;stroke:none"
     sodipodi:nodetypes="ccccc" />
  <rect
     style="fill:#737373;fill-opacity:1;fill-rule:nonzero;stroke:none"
     id="rect4126"
     width="10"
     height="2"
     x="15"
     y="18" />
  <rect
     style="fill:#737373;fill-opacity:1;fill-rule:nonzero;stroke:none"
     id="rect4126-5"
     width="10"
     height="2"
     x="15"
     y="23" />
</svg>

<svg xmlns="http://www.w3.org/2000/svg" viewBox="0 0 48 48">
 <path d="m 36.31,5 c 5.859,4.062 9.688,10.831 9.688,18.5 0,12.426 -10.07,22.5 -22.5,22.5 -7.669,0 -14.438,-3.828 -18.5,-9.688 1.037,1.822 2.306,3.499 3.781,4.969 4.085,3.712 9.514,5.969 15.469,5.969 12.703,0 23,-10.298 23,-23 0,-5.954 -2.256,-11.384 -5.969,-15.469 C 39.81,7.306 38.132,6.037 36.31,5 z m 4.969,3.781 c 3.854,4.113 6.219,9.637 6.219,15.719 0,12.703 -10.297,23 -23,23 -6.081,0 -11.606,-2.364 -15.719,-6.219 4.16,4.144 9.883,6.719 16.219,6.719 12.703,0 23,-10.298 23,-23 0,-6.335 -2.575,-12.06 -6.719,-16.219 z" style="opacity:0.05"/>
 <path d="m 41.28 8.781 c 3.712 4.085 5.969 9.514 5.969 15.469 0 12.703 -10.297 23 -23 23 -5.954 0 -11.384 -2.256 -15.469 -5.969 4.113 3.854 9.637 6.219 15.719 6.219 12.703 0 23 -10.298 23 -23 0 -6.081 -2.364 -11.606 -6.219 -15.719 z" style="opacity:0.1"/>
 <path d="M 31.25,2.375 C 39.865,5.529 46,13.792 46,23.505 c 0,12.426 -10.07,22.5 -22.5,22.5 -9.708,0 -17.971,-6.135 -21.12,-14.75 a 23,23 0 0 0 44.875,-7 23,23 0 0 0 -16,-21.875 z" style="opacity:0.2"/>
 <path d="m 7.737 7.737 c -8.982 8.982 -8.982 23.545 0 32.527 l 16.263 -16.263 -16.263 -16.263 z" style="fill:#bbd500;fill-opacity:1;stroke:none;fill-rule:evenodd"/>
 <path d="m 7.737 7.737 16.263 16.263 16.263 -16.263 c -8.982 -8.982 -23.545 -8.982 -32.527 0 z" style="fill:#ffe600;fill-opacity:1;stroke:none;fill-rule:evenodd"/>
 <path d="m 24 24 16.263 16.263 c 8.982 -8.982 8.982 -23.545 0 -32.527 l -16.263 16.263 z" style="fill:#75b7fd;fill-opacity:1;stroke:none;fill-rule:evenodd"/>
 <path d="m 7.737 40.26 c 8.982 8.982 23.545 8.982 32.527 0 l -16.263 -16.263 -16.263 16.263 z" style="fill:#ff8a00;fill-opacity:1;stroke:none;fill-rule:evenodd"/>
 <path d="m 40.03,7.531 c 3.712,4.084 5.969,9.514 5.969,15.469 0,12.703 -10.297,23 -23,23 C 17.045,46 11.615,43.744 7.53,40.031 11.708,44.322 17.54,47 23.999,47 c 12.703,0 23,-10.298 23,-23 0,-6.462 -2.677,-12.291 -6.969,-16.469 z" style="opacity:0.1"/>
 <path d="m 16.75 13 16.5 0 c 2.071 0 3.75 1.679 3.75 3.75 l 0 16.5 c 0 2.071 -1.679 3.75 -3.75 3.75 l -16.5 0 c -2.071 0 -3.75 -1.679 -3.75 -3.75 l 0 -16.5 c 0 -2.071 1.679 -3.75 3.75 -3.75 z" style="fill:#000;opacity:0.1;fill-opacity:1"/>
 <path d="m 15.75 12 16.5 0 c 2.071 0 3.75 1.679 3.75 3.75 l 0 16.5 c 0 2.071 -1.679 3.75 -3.75 3.75 l -16.5 0 c -2.071 0 -3.75 -1.679 -3.75 -3.75 l 0 -16.5 c 0 -2.071 1.679 -3.75 3.75 -3.75 z" style="fill:#fff"/>
 <path d="m 19 16 -0.469 3 -2.531 0 0 2 2.219 0 -0.469 3 -1.75 0 0 2 1.469 0 -0.469 3 l 2 0 0.469 -3 2 0 l -0.469 3 2 0 0.469 -3 2.531 0 0 -2 -2.25 0 0.469 -3 1.781 0 0 -2 -1.469 0 0.469 -3 l -2 0 -0.469 3 -2 0 l 0.469 -3 -2 0 z m 1.219 5 2 0 -0.469 3 -2 0 0.469 -3 z" style="fill:#000;opacity:0.1;fill-opacity:1;stroke:none"/>
 <path d="m 16 28 2 -13 2 0 -2 13 z" style="fill:#737373;fill-opacity:1;stroke:none"/>
 <path d="m 20 28 2 -13 2 0 -2 13 z" style="fill:#737373;fill-opacity:1;stroke:none"/>
 <rect width="10" height="2" x="15" y="18" style="fill:#737373;fill-opacity:1;stroke:none;fill-rule:nonzero"/>
 <rect width="10" height="2" x="15" y="23" style="fill:#737373;fill-opacity:1;stroke:none;fill-rule:nonzero"/>
</svg>
